X:1
T:Title
%%score 1 2
L:1/8
M:3/2
K:Eb
V:1 treble nm="Grand Piano, Soprano"
V:2 bass nm="Choir Pad, Beethoven (Mason), LM"
V:1
 [EG]2 [EA]2 [EB]2 [Ec]6 | [EB]2 [DA]2 [EG]2 [DF]6 | [EG]2 [EA]2 [EB]2 [Ec]2 [_Ge]2 [Fd]2- | %3
w: By~Arranged~by~Lowell~Mason,~1855 * * *|||
 [Fd]2 [Ec]4 .[DB]6 | [GB]2 [FA]2 [EG]2 [DF]6 | [Ac]2 [GB]2 [FA]2 [EG]6 | %6
w: |||
 [EG]2 [EA]2 [EB]2 [Ec]2 [Ee]2 [EG]2- | [EG]2 [DF]4 E6- | E4 z4 z4 |] %9
w: |||
V:2
 [E,B,]2 [F,B,]2 [G,C]2 A,6 | [G,B,]2 [F,B,]2 [E,B,]2 [B,,B,]6 | %2
 [E,B,]2 [F,B,]2 [G,B,]2 A,2 [=A,C]2 B,2- | B,2 [F,=A,]4 .[B,,B,]6 | %4
 [B,,B,]2 [B,,B,]2 [B,,B,]2 [B,,B,]6 | [B,,B,]2 [B,,B,]2 [B,,B,]2 [E,B,]6 | %6
 [E,B,]2 [F,B,]2 [G,B,]2 A,2 [=A,C]2 B,2- | B,2 [B,,A,]4 [E,G,]6- | [E,G,]4 z4 z4 |] %9

